!!!OTL: I'll Close My Eyes
!!!MPN: Mitchell, Blue
!!!OAT: Mitchell, Blue
!!!OAL: Blue's Moods
!!!ODL: 1960-08-24/1960-08-25
!!!COM: Reid, Billy
!!!ODT: 1945
**kern
*ITromp
*ITrd1c2
*clefG2
*F:
*k[b-]
*M4/4
=-
4r
4c
4b-
4a
=1
[1a
=2
4a]
8r
8c
4b-
4a
=3
4a
8gL
[8eJ
2e_
=4
4e]
8r
8A
4r
8gL
8fJ
=5
1f
=6
8r
8e
4f
4a
4f
=7
[1e-
=8
2e-]
4r
8r
8e-
=9
4d
4e-
[2cc
=10
4cc]
8r
8b-
4f
4g
=11
4.a
[8a
2a_
=12
2a]
4r
4a
=13
[1g#
=14
4g#]
8r
8e
4g
8fL
[8eJ
=15
2.e]
8e-L
[8dJ
=16
4d]
8r
8c
4b-
4a
=17
2.a
4r
=18
4r
4c
4b-
4a
=19
4a
8gL
[8eJ
2e_
=20
4e]
8r
8A
4g
8fL
[8fJ
=21
1f]
=22
8r
8e
8fL
[8aJ
4a]
8fL
8cJ
=23
[1e-
=24
2e-]
4r
8r
8e-
=25
4d
4e-
[2cc
=26
4cc]
8r
8b-
4f
4g
=27
2a
4.a
8a
=28
4r
8r
8a
4cc
8bL
[8b-J
=29
4.b-]
8d
4e
4f
=30
4.g
[8a
4a]
4r
=31
8aL
8b-J
4cc
8ffL
8ee
8dd
8dd-J
=32
8ccL
8cc-
8b-
8ddJ
8aL
16b-L
16aJJ
8gL
8ccJ
=33
1r
=34
8eeL
8ff
8gg
8ffJ
8eeL
8dd
8cc
8cc-J
=35
8b-L
8a
8g
8fJ
8eL
8d
8c#
8eJ
=36
8gL
8b-
8g
8g#J
4a
8eeL
8cc#J
=37
2dd
8r
8a
8gL
8fJ
=38
4a
8dL
[8fJ
2f]
=39
2r
8ggL
8gg-
8ff
8eeJ
=40
8ee-L
8f
8g
8b-J
8ddL
8dd-
8cc
8b-J
=41
24aLL
24b-
24aJ
8gJ
8fL
8e-J
8dL
8f
8a
8ccJ
=42
8b-L
8cc
8dd-
8ee-J
4ff
12dd-L
12cc
12b-J
=43
4a
8eL
8gJ
8fL
8c
8B-
[8AJ
=44
4A]
4r
2r
=45
8gg#L
8eeJ
4r
8eeL
8bJ
4r
=46
8bL
8g#J
4r
8g#L
8eJ
4r
=47
2r
8ddL
8cc#
8cc
8bJ
=48
8b-L
8d
8f
8aJ
4a-
4e
=49
4.f
[8cc
2cc_
=50
2cc]
12b-L
12cc
12ddJ
[4cc
=51
4cc]
4r
2r
=52
8r
16ddLL
16cc#JJ
8ccL
8bJ
8b-L
8a
8g
8fJ
=53
8eL
8d
8c#
8eJ
8dL
8e
8f
8gJ
=54
8a-L
8a
8dd
8b-J
4b
4cc
=55
4r
8aL
8gJ
8fL
8d
8e-
8b-J
=56
8ddL
8cc
8ff
8eeJ
8ee-L
8ddJ
12ccL
12cc-
12b-J
=57
8aL
8g
8f
8e-J
8dL
8f
8a
8ccJ
=58
8b-L
8f
8b-
8ccJ
8dd-L
8ff
8cc
8b-J
=59
8aL
[8aJ
4a]
2r
=60
4r
8r
8a
4b-
4b
=61
8ccL
8aJ
4r
2r
=62
8b-L
8f
8g
8f#J
8gL
8a
8b-
8ddJ
=63
8ccL
8e
8f
8b-J
8aL
8c
8d
[8gJ
=64
4g]
8fL
8gJ
8eL
8d
8c
8B-J
=65
4A
12cL
12e
12gJ
8fL
8g
8a
8ccJ
=66
4ee
8ee-L
8ddJ
8ccL
8a
8g
8fJ
=67
8eL
16fL
16eJJ
8dL
8cJ
8c#L
8e
8B-
8GJ
=68
4A
4r
2r
=69
8r
qgg
8aa
4r
4ee
8ggL
8eeJ
=70
8ffL
8ccJ
4r
2r
=71
8r
8gg
4ee-
4ee-
4cc
=72
4cc
4a
4a
8fL
8e-J
=73
8dL
8fJ
4a
4b-
8r
16e-LL
16dJJ
=74
8d-L
8fJ
4a
4b-
4r
=75
8r
8c
12dL
12f
12aJ
4cc
8b-L
[8aJ
=76
2a]
2r
=77
4ee
4r
4.b
8a
=78
8g#L
8b
8f
8e-J
2e
=79
8r
8a
8ccL
8bJ
8b-L
8dd
8a
8a-J
=80
8gL
8d
8f
8dJ
8eL
8dd-
8b-
8bJ
=81
4.cc
[8a
2a_
=82
2.a]
8ddL
8cc#J
=83
8ccL
8aJ
4r
2a
=84
1r
=85
4r
8eeL
8ddJ
4a
[4a
=86
4a]
8eeL
8ddJ
4a
8fL
[8e-J
=87
2e-]
2r
=88
2r
4r
[4dd
=89
4dd]
4r
8ccL
8b-
8cc
8b-J
=90
8aL
8b-
8a
8gJ
8e-L
8e
8g
8fJ
=91
8c#L
8e
8d
8eJ
8fL
8g
8a
8ccJ
=92
8eeL
8ddJ
12ccL
12dd
12ccJ
8b-L
8g#
8a
8gJ
=93
8g-L
8a
8g
8dJ
8f#L
8d
8f
8dJ
=94
4e
12gL
12b-
12cc#J
4cc
8b-L
8gJ
=95
8aL
8fJ
4r
2f
=96
4r
4a
4b-
4b
=97
8ccL
8aJ
4r
4r
8r
8a
=98
8ddL
8dd-
8cc
8cc-J
8b-L
8a
8g
8fJ
=99
8eL
8d
8c#
8AJ
4.B-
8G
=100
4A
8c#L
8dJ
8eL
8c#
8d
8eJ
=101
8fL
8g
8a-
8aJ
8bL
8cc
8dd
8eeJ
=102
8ff
8r
4r
8eeL
8dd
8cc
8b-J
=103
8aL
8g
8f
8eJ
8e-L
8gJ
12e-L
12d
12cJ
=104
8fL
[8e-J
4e-]
4r
8r
8g
=105
4d
4r
2r
=106
4r
8ccL
8b-J
4f
4c
=107
1r
=108
1r
=109
8eeL
8bJ
4r
8bL
8g#J
4r
=110
4g#
8eL
8g#J
4e
4c
=111
4.a
8cc
4r
8r
8a
=112
8b-L
8cc
8dd
8b-J
8aL
16b-L
16aJJ
4g
=113
4.cc
[8a
4a]
4r
=114
4.dd
[8cc
4cc]
4f
=115
4.b-
[8a
4a]
4c
=116
4g
4g
4f
4c
=117
4.e
[8d
4d]
4r
=118
1r
=119
8eeL
8ee-
8dd
8dd-J
8ccL
8b
8b-
8a-J
=120
8aL
8g
8f
8eJ
8e-L
8g
8d
8cJ
=121
8fL
8d
8c
8AJ
8B-L
8c
8d
8eJ
=122
8fL
8g
8a-
8b-J
8ccL
8ee-
8dd-
8ccJ
=123
2r
8ccL
8a
8g
8fJ
=124
8eL
8f
8a
8ccJ
8eeL
8ddJ
4r
=125
4b-
8dL
8fJ
8aL
16b-L
16aJJ
8gL
[8g#J
=126
4g#]
8r
8g
8fL
8d
8c
8A-J
=127
8AL
[8fJ
4f]
2r
=128
4r
8a-L
8gJ
8fL
8d
8c
8B-J
=129
8AL
8AJ
4r
2r
==
*-
!!!OCL: Hubert Leveille Gauvin
!!!ENC: Hubert Leveille Gauvin
!!!END: 2018-04-15